X: 305574
T: SHARON HORNPIPE
C:
%R: hornpipe, reel
B: Elias Howe "The Musician's Companion" Part 3 1844 p.65 #2
S: http://imslp.org/wiki/The_Musician's_Companion_(Howe,_Elias)
S: https://archive.org/stream/firstthirdpartof03howe/#page/66/mode/1up
Z: 2015 John Chambers <jc:trillian.mit.edu>
M: C
L: 1/8
K: Bb
% - - - - - - - - - - - - - - - - - - - - - - - - -
F2 |\
B2fd e2ge | fbab afdB | c2ec dfdB | edec BAGF |\
B2fd e2ge | fbab afdf | g/a/b ge dfdB | c/d/e cA B2 :|
|: F2 |\
f2fd e2ec | dfdB cAGF | fbfd egec | BfdB cAGF |\
B2fd e2ge | fbab afdf | g/a/b ge dfdB | c/d/e cA B2 :|
% - - - - - - - - - - - - - - - - - - - - - - - - -


